vendor/shopware/storefront/Resources/app/storefront/dist/assets/icon/default/infinity.svg

<svg xmlns="http://www.w3.org/2000/svg" width="24" height="24" viewBox="0 0 24 24">
  <path fill="#758CA3" fill-rule="evenodd" d="M11.9977978,13.6069282 L10.179693,15.8937919 C10.0445175,16.0638194 9.89952322,16.2258037 9.7454513,16.3789168 C7.56091444,18.5498578 4.03010201,18.5388362 1.85916099,16.3542993 L1.73504224,16.2294033 C-0.590473008,13.8893241 -0.590473008,10.1107294 1.73504224,7.77065032 L1.85916099,7.64575425 C2.01227402,7.49168233 2.17425832,7.34668804 2.34428583,7.21151259 C4.7550519,5.29490278 8.26308316,5.69549559 10.179693,8.10626165 L11.9977978,10.3931254 L13.8159027,8.10626165 C15.7325125,5.69549559 19.2405437,5.29490278 21.6513098,7.21151259 C21.8213373,7.34668804 21.9833216,7.49168233 22.1364346,7.64575425 L22.2605534,7.77065032 C24.5860686,10.1107294 24.5860686,13.8893241 22.2605534,16.2294033 L22.1364346,16.3542993 C19.9654936,18.5388362 16.4346812,18.5498578 14.2501443,16.3789168 C14.0960724,16.2258037 13.9510781,16.0638194 13.8159027,15.8937919 L11.9977978,13.6069282 Z M15.3814353,14.6491605 C15.4681302,14.7582077 15.5611224,14.8620964 15.6599365,14.9602956 C17.0609905,16.3526299 19.3254791,16.3455612 20.7178135,14.9445072 L20.8419322,14.8196111 C22.3922757,13.2595583 22.3922757,10.7404952 20.8419322,9.18044247 L20.7178135,9.05554641 C20.6196143,8.95673229 20.5157256,8.86374012 20.4066783,8.77704526 C18.8605321,7.54782643 16.6106542,7.80474686 15.3814353,9.3508931 L13.2753183,12.0000268 L15.3814353,14.6491605 Z M8.61416029,9.3508931 C7.38494146,7.80474686 5.13506353,7.54782643 3.58891728,8.77704526 C3.47987004,8.86374012 3.37598131,8.95673229 3.27778218,9.05554641 L3.15366343,9.18044247 C1.60331993,10.7404952 1.60331993,13.2595583 3.15366343,14.8196111 L3.27778218,14.9445072 C4.67011648,16.3455612 6.93460513,16.3526299 8.33565914,14.9602956 C8.43447326,14.8620964 8.52746543,14.7582077 8.61416029,14.6491605 L10.7202774,12.0000268 L8.61416029,9.3508931 Z"/>
</svg>

<svg xmlns="http://www.w3.org/2000/svg" width="24" height="24" viewBox="0 0 24 24"><path fill="#758CA3" fill-rule="evenodd" d="m11.9978 13.607-1.8181 2.2868c-.1352.17-.2802.332-.4342.4851-2.1846 2.171-5.7154 2.16-7.8863-.0246l-.1242-.1249c-2.3255-2.34-2.3255-6.1187 0-8.4587l.1242-.125c.153-.154.315-.299.485-.4342 2.4109-1.9166 5.9189-1.516 7.8355.8948l1.8181 2.2868 1.8181-2.2868c1.9166-2.4108 5.4246-2.8114 7.8354-.8948.17.1352.332.2802.4851.4343l.1242.1249c2.3255 2.34 2.3255 6.1186 0 8.4587l-.1242.1249c-2.171 2.1845-5.7017 2.1956-7.8863.0246a5.5765 5.5765 0 0 1-.4342-.4851l-1.8181-2.2869zm3.3836 1.0422c.0867.109.1797.2129.2785.3111 1.401 1.3923 3.6656 1.3853 5.058-.0158l.124-.1249c1.5504-1.56 1.5504-4.0791 0-5.6392l-.124-.1249a3.5765 3.5765 0 0 0-.3112-.2785c-1.5462-1.2292-3.796-.9723-5.0253.5739L13.2754 12l2.106 2.6492zM8.6142 9.3509C7.3849 7.8047 5.135 7.5479 3.5889 8.777a3.5765 3.5765 0 0 0-.3111.2785l-.1241.125c-1.5504 1.56-1.5504 4.079 0 5.6391l.124.125c1.3924 1.401 3.657 1.408 5.058.0157a3.5765 3.5765 0 0 0 .2785-.3111L10.7202 12 8.6143 9.351z"/></svg>
